X: 9659
T: De Boucher A St-Ambroise
R: jig
M: 6/8
K: Dmajor
d2A FAc|def gfe|fdA FGA|Bed cBc|
dAG FED|def gfe|fed gfe|1 agc d2 A:|2 agc d3||
|:ged cBA|fdA FGA|BGB AB/c/d|efg e2 f|
ged cde|fdc d2e|fed gfe|agc d3:|

